svgs/solid/card-diamond.svg

<svg xmlns="http://www.w3.org/2000/svg" viewBox="0 0 384 512"><!--! Font Awesome Pro 6.1.2 by @fontawesome - https://fontawesome.com License - https://fontawesome.com/license (Commercial License) Copyright 2022 Fonticons, Inc. --><path d="M0 64C0 28.65 28.65 0 64 0H320C355.3 0 384 28.65 384 64V448C384 483.3 355.3 512 320 512H64C28.65 512 0 483.3 0 448V64zM84.69 244.7C78.44 250.9 78.44 261.1 84.69 267.3L180.7 363.3C186.9 369.6 197.1 369.6 203.3 363.3L299.3 267.3C305.6 261.1 305.6 250.9 299.3 244.7L203.3 148.7C197.1 142.4 186.9 142.4 180.7 148.7L84.69 244.7z"/></svg>

<svg xmlns="http://www.w3.org/2000/svg" viewBox="0 0 384 512"><!--! Font Awesome Pro 6.2.0 by @fontawesome - https://fontawesome.com License - https://fontawesome.com/license (Commercial License) Copyright 2022 Fonticons, Inc. --><path d="M0 64C0 28.7 28.7 0 64 0H320c35.3 0 64 28.7 64 64V448c0 35.3-28.7 64-64 64H64c-35.3 0-64-28.7-64-64V64zm180.7 84.7l-96 96c-6.2 6.2-6.2 16.4 0 22.6l96 96c6.2 6.2 16.4 6.2 22.6 0l96-96c6.2-6.2 6.2-16.4 0-22.6l-96-96c-6.2-6.2-16.4-6.2-22.6 0z"/></svg>
